X: 30584
T: CONTRA DANCE
P: A Minor
%R: reel
B: Elias Howe "The Musician's Companion" Part 3 1844 p.58 #4
S: http://imslp.org/wiki/The_Musician's_Companion_(Howe,_Elias)
S: https://archive.org/stream/firstthirdpartof03howe/#page/66/mode/1up
Z: 2015 John Chambers <jc:trillian.mit.edu>
N: The rhythms between the strains aren't quite right; not fixed.
M: 2/4
L: 1/16
K: Am
% - - - - - - - - - - - - - - - - - - - - - - - - -
|:\
EAcA eAcA | EAce dBB2 |\
EAcA eAcA | afed cAA2 ::\
e2 |\
agae fefg | afec dBB2 |
agae fgae | fdBe cAA2 ::\
agae fefg | afec dBB2 |\
cABc defg | aefd cAA2 :|
% - - - - - - - - - - - - - - - - - - - - - - - - -
